X:542
%%etbk:tnset id:278,pos:2,rep:2x,ant:
%%etbk:pldat 2015-02-22T13:28,2015-02-17T16:35,2015-01-14T16:38,2015-01-13T16:36,2015-01-12T18:10,2015-01-10T14:48,2015-01-08T18:32,2015-01-07T15:21,2015-01-05T18:14,2014-12-26T16:01,2014-10-16T18:49,2014-10-14T18:11,2014-10-12T13:47,2014-09-18T18:24,2014-09-13T13:12,2014-08-14T18:43,2014-08-13T19:01,2014-08-12T18:39,2014-08-11T18:53,2014-08-10T13:35,2014-08-09T17:28,2014-08-06T19:08,2014-08-05T18:58,2014-08-04T18:23,2014-08-03T15:48,2014-08-02T14:55,2014-07-29T18:56,2014-07-26T15:28,2014-07-22T18:48,2014-07-21T20:33,2014-07-16T18:11,2014-07-04T11:21,2014-07-02T16:56,2014-06-30T11:18,2014-06-20T15:43,2014-06-19T18:37,2014-06-17T18:26,2014-06-09T14:29,2014-06-05T18:14,2014-05-28T10:13,2014-04-24T18:41,2014-04-24T18:38,2014-04-23T16:38,2014-04-22T19:08,2014-04-21T16:13,2014-04-18T11:15,2014-04-12T11:50,2014-04-09T15:44,2014-04-06T11:29,2014-04-02T16:30,2014-03-23T15:09,2014-03-06T19:17,2014-03-05T19:03,2014-03-04T19:03,2014-03-03T18:50,2014-03-02T15:39,2014-03-01T15:09,2014-02-23T10:06,2014-01-30T18:37,2014-01-28T17:11,2014-01-27T18:51,2014-01-26T15:30,2014-01-21T17:59,2014-01-19T14:47,2014-01-18T16:19,2014-01-16T18:56,2014-01-14T19:17,2014-01-12T14:38,2014-01-08T17:06,2014-01-07T17:22,2014-01-06T18:21,2014-01-02T10:35,2013-12-28T14:12,2013-12-26T14:12,2013-12-18T16:13,2013-12-15T15:49,2013-12-11T19:48,2013-12-10T18:44
T: Neck Belly
Z: Piano Box Version by Martin Fleischmann
H: Created 2013-11-03 /  Last Modified 2013-11-03
R: reel
M: 4/4
L: 1/8
K: Fmaj
|:"F"!4!c3d cccd | !4!cBA!1!G !2!A!1!FAB | !4!c!1!F!5!dF cFdF | !4!cBA!1!F "C"!1!GABd|
"F"!4!cBAB cBAB | cBA!1!G !2!A!1!FAB | !1!c!4!fff f!1!c!2!d!4!f | "C"!1!c!3!BA!1!G "F"!1!F2z2:||
|:"F"!5!a4a2ga| "Bb"!4!gf!2!d!1!c !2!d2!3!f!4!g | "F"fd!1!c!2!A !1!cccd | "C"!1!cd!3!f!5!a gafg|
"F"!5!a2gf a2gf | "Bb"!4!gf!2!d!1!c !2!d2!3!f!4!g | "F"fd!1!c!2!A !1!cccd | "C"!1!cdf!4!g "F"!3!f2z2:||
|:"Bb"!3!d4 d2!5!f!3!d | "F"!2!c!1!A!3!G!4!A !2!FF!1!C!2!F | "Bb"!1!D2!2!F!1!F !1!F!2!A!3!c!4!d | "C"!1!cdfg !5!afga |
"Bb"!3!f!1!d!3!dd d2!5!f!3!d | "F"!2!c!1!A!3!G!4!A !2!FF!1!C!2!F | "Bb"!1!D2!2!F!1!F FAcd | "C"cdfg "F"f2z2:||


